X: 23
T: Harlequin Highlander
%R: jig
B: "Twenty Four Country Dances for the Year 1799", Thomas Skillern, ed. p.12 #1
F: http://www.vwml.org/browse/browse-collections-dance-tune-books/browse-skillerns1799
Z: 2014 John Chambers <jc:trillian.mit.edu>
M: 6/8
L: 1/8
K: G
d |\
BGG BGG | dgf edc | cAA cAA | eag fed |\
cec BdB | cec BdB | FcB AGF | GDB, [G2G,2] :|
|: g |\
(gfe) (dcB) | (edc) (BAG) | cBA GFE | (DEF G2)g |\
(gfe) (dcB) | (edc) (BAG) | cBA GFE | DEF G2 :|
%%begintext align
%% The 1st Lady set to the 2d Gent. and turn the
%% 3d, The 1st Gent. the same to 2d Lady, set 3 & 3
%% sideways, and Hands 3 round.
%%endtext

%%sep 1 1 500
%%sep 1 1 500
